X: 14
T: Maids Of Ardagh, The
Z: put10
S: https://thesession.org/tunes/466#setting52315
R: polka
M: 2/4
L: 1/8
K: Dmaj
|:FA BA|dA f2|fe1/2f1/2 gc|ed BA|
FA BA|dA f2|fe1/2f1/2 gc|ed d2:|
|:ef1/2e1/2 ce|fe a2|ef1/2e1/2 ce|fe c1/2B1/2A|
ef1/2e1/2 ce|fe a2|ef1/2e1/2 dB|BA A2:|

%-------------------- TUNE SEPARATOR --------------------%

